X:14
T: Graf und Nonne (Die Nonne)
N: Q0155M
O: Mitteleuropa, Oesterreich, Niederoesterreich, Goggendorf
N: Grundton taucht nicht auf ! Grundton in der eingestrichenen Oktave.
R: Ballade, Standesunterschied, vergebliche Werbung, Liebe, Klage, Tod
M: 6/8
L: 1/16
K: Bb
f2 | f3dd2d2c2d2 | e2e2z6
g2 | g4e2e2f2g2 | f6z4
f2 | f3dd2d3cd2 | e4g2g4
g2 | f2g2f2e4e2 | d4z6

